X:236
T:Road to Lisdoonvarna, The
R:reel
Z:transcribed by Dave Marshall
M:C|
K:Dmix
|: D2 AG ABcA | G~E3 cEGE | D2 AG ABcA | BGAG FDD2 :|
|: d2 fd cA (3AAA | B~G3 cAA2 | d2fd cA (3AAA | BGAG FDD2 :|
